X:912802
T:Hallelujah 3VP1
B:
H:
C:
O:Transcribed by Kevin Fraser
Z:Kevin Fraser
% K:{g}B{d}BMix score=_{g}B{e}A %concert Pitch
L:1/8
Q:3/8=72
M:12/8
K:Amix
V:M clef=treble nm="Melody" snm="Melody" transpose=2
V:4 clef=treble-8 nm="Acoustic Guitar" snm="Guit9" transpose=2
V:C clef=treble nm="Chords" snm="Chords" transpose=2
V:B clef=treble nm="Bass" snm="Bass" transpose=2
V:P7 clef=treble nm="DNU" snm="DNU"transpose=2
V:P9 clef=treble nm="DNU" snm="DNU"
V:BT clef=perc nm="Bass Tenor" snm="B&T"
V:S clef=perc nm="Snare" snm="Snare"
V:BB gstem=up stem=down name="Brass Bass" sname="ABCD-C" transpose=0  octave=-1 clef=bass
V:BC gstem=up stem=down name="Brass Chord" sname="ABCD-D" transpose=0
V:BD gstem=up stem=down name="Brass Chord 2" sname="ABCD-B" transpose=0
V:P gstem=up stem=down name="Piano"  octave=-1 transpose=2
V:Piano gstem=up stem=down name="Piano"  octave=-1 transpose=2
V:Drums name="drums" sname="drums" 
%%landscape
%%MIDI channel 10
%%MIDI program 0
%%MIDI drummap F 36 %bass drum 1
%%MIDI drummap c 38 %acoustic snare
%%MIDI drummap ^D 44 %pedal hi-hat
%%MIDI drummap ^f 51 %ride cymbal 1
%%MIDI drummap ^g 42 %closed hi hat
%%MIDI drummap ^a 49 %crash cymbal 1
%%MIDI drummap ^b 52 %chinese cymbal
%%MIDI drummap e 50 %high tom
%%MIDI drummap d 48 %hi mid tom
%%MIDI drummap B 45 %low tom
%%MIDI drummap A 41 %low floor tom
%%MIDI Channel 10
%%MIDI gracedivider 100
%%MIDI beatstring
%%MIDI vol 100
% %score { M C B }
% %score { M C B Piano P Drums }
% %score { C }
V:M
%%MIDI program 1
V:C
%%MIDI program 1
V:B
%%MIDI program 1
V:Drums 
% %MIDI program 14
%Midi Channel 10/11 designated for DRUMS
% 35 - Acoustic Bass    B0
% 38 - Acoustic Snare   D1
% 39 - Hand Clap        Eb1
% 41 - Floor Tom        F1
% 42 - Closed High hat  F#1
% 43 - High floor tom   G1
% 44 - Pedal High hat   Ab1
% 45 - Low Tom          A1
% 46 - Open hi hat      Bb1
% 47 - Low-mid tom      B1
% 48 - High-mid tom     C2
% 49 - Crash            C#2
% 50 - High Tom         D2
% 51 - Ride             D#2
% 53 - Ride Bell        F2
% 55 - Splash           G2
% 57 - Crash 2          A2
% 59 - Ride 2           B2
% 81 - Triangle         A4
%%MIDI channel 10
%%MIDI program 14
%%MIDI drumon
[V:Drums][^gB,,,]^g^g  [^gD,,]^g^g [^gB,,,]^g^g  [^gD,,]^g^g | [^gB,,,]^g^g  [^gD,,]^g^g [^gB,,,]^g^g  [^gD,,]^g^g | 
[V:Drums][^gB,,,]^g^g  [^gD,,]^g^g [^gB,,,]^g^g  [^gD,,]^g^g | [^gB,,,]^g^g  [^gD,,]^g^g [^gB,,,]^g^g  [^gD,,]^g^g | 
[V:Drums][^gB,,,]^g^g  [^gD,,]^g^g [^gB,,,]^g^g  [^gD,,]^g^g | [^gB,,,]^g^g  [^gD,,]^g^g [^gB,,,]^g^g  [^gD,,]^g^g | 
[V:Drums][^gB,,,]^g^g  [^gD,,]^g^g [^gB,,,]^g^g  [^gD,,]^g^g | [^gB,,,]^g^g  [^gD,,]^g^g [^gB,,,]^g^g  [^gD,,]^g^g | 
[V:Drums][^gB,,,]^g^g  [^gD,,]^g^g [^gB,,,]^g^g  [^gD,,]^g^g | [^gB,,,]^g^g  [^gD,,]^g^g [^gB,,,]^g^g  [^gD,,]^g^g | 
[V:Drums][^gB,,,]^g^g  [^gD,,]^g^g [^gB,,,]^g^g  [^gD,,]^g^g | [^gB,,,]^g^g  [^gD,,]^g^g [^gB,,,]^g^g  [^gD,,]^g^g | 
[V:Drums][^gB,,,]^g^g  [^gD,,]^g^g [^gB,,,]^g^g  [^gD,,]^g^g | [^gB,,,]^g^g  [^gD,,]^g^g [^gB,,,]^g^g  [^gD,,]^g^g | 
[V:Drums][^gB,,,]^g^g  [^gD,,]^g^g [^gB,,,]^g^g  [^gD,,]^g^g | 
%[V:Drums]G,,A,,B,,C,,D,,E,,F,, G,A,B,C,D,E,F, GABCDEF gabcdef g'a'b'c'd'e'f'
[V:M]z12 | z3 z3 z3 z2 c     || "Ab"{g}e2{A}e {g}e2{A}e {g}f{g}f{g}f- {g}f2c            |  {g}e2{A}e    {g}e2{A}e {g}f{g}f{g}f {g}f2e | {g}f2{g}f    {g}f2{g}f {g}f2e {g}e2d     | {g}                 e3 {A} e6- e{g}cd  | $
w: I've | heard there was a se-cret chord - that| Da-vid played and it pleased the lord but| you don't real-ly care  for mu-sic | do ya Well it |
[V:C]z12 |z3 z3 z3 z2 c    || {g}e2{A}e {g}e2{A}e {g}f{g}f{g}f- {g}f2c            |  {g}e2{A}e    {g}e2{A}e {g}f{g}f{g}f {g}f2e | {g}d2{g}d    {g}d2{g}d {g}d2c {g}c2B     | c3-cdc              B3-Bcd             | $
[V:B]z12 |z3 z3 z3 z2 c    || {g}e2{A}e {g}e2{A}e {g}f{g}f{g}f- {g}f2c            |  {g}e2{A}e    {g}e2{A}e {g}f{g}f{g}f {g}f2e | A6           Bc2-c2G                          | A6                  G6                 | $
[V:M] |    {g}e2{A}e {g}e2{A}e {g}f2{e}f {gf}g2 e    |  {ag}a2{g}a   {g}a2f {ag}a2{g}a B2A         | {g}B2{d}B    {g}B2{d}B {g}c2{d}c {g}c2 B | {g}B2A              {GAG}A6 {g}c2e     | $
w: goes like this   the  fourth the fifth the | min-or     fall  the   ma-jor     lift the | baf-fled king com-po-sing hal-le- | lu-jah - Hal-le |$
[V:C]   | c6 d3 e3                                  |  f6            f6               | e6           G3 B3                       | [a]3-[a]3-[a]3-[a]3                    | $
[V:B]   | A6 d3 e3                                  |  [c]6 d6                                    | [g]6         [e]3 [g]3                   | f6                  c3 f3              | $
[V:M]  |   {g}f3{GdG}f6 {g}f2e                       |  {g}c3        {GdG} c6 {g}c2e               | {g}f3{GdG}f6 {g}f2e                      | {g}c3-              cBc {gBd}B3-B2 A   | {GAG}A3-A3-A3- A{g}fe                    ||  $
w:   lu-jah  Hal-le           | lu-jah  Hal-le            | lu-jah  Hal-le            | lu-jah  Hal-le | jah-        -Well your|
[V:C]   | B3 B6 {g}f2e                              |  f3f6         {g}c2e                        | d3           d6 {g}f2e                   | e12                                    | Aea-             a2g fea fdd                  || 
[V:B]   | {g}f3{GdG}f6 {g}f2e                       |  A3A6         {g}c2e                        | A3           A6 {g}f2e                   | A6                  A3 A3                 |  Aca c3-c3 c3                            ||  
V:Piano sname="Piano"
%%MIDI channel 4
%%MIDI program 2
%Pentatonix v 1,2,3
|| "A"Aea [Aace]3  "F#m7"Fda [FAc]3 | "A"Aea [Aace]3  "F#m7"Fda [Fad]3
|| "A"Aea [Aace]3  "F#m7"Fda [FAc]3 | "A"Aea [Aace]3  "F#m7"Fda [Fad]3
   "D"Adf [Adf]3 "E"EBg [Ceg]3 | "A"Aea [aceC]3 "E"EBg [Beg]3 | 
   "A"Aea [aceC]3 "D"Adf "E"EBg  | "F#m"Fea [Feac]3 "D"Adf [Adf]3 | 
%p3
   "E"EGB [Beg]3 "c#7"Gce "Edim"Beg | "F#m"cfa [cfa]6 z3 | "D"dfa [Adfa]3 dfa [Adfa]3 | "F#m"Acf [Acf]3 "F"cfa [Afa]3 | 
   "D"Adf [Adf]3 "D"Adf [Adf]3       | "A"Aea [aceC]3 "E4"EBg "E"[Beg]3 | %18
   "A""A"Aea [aceC]3 "F#m7"Fea [Feac]3 ||
V:P sname="Bass G"
%%MIDI channel 5
%%MIDI program 33
%Pentatonix v8
|| A,3 A,2 G, F,3 F,2 G, | A,3 A,2 G,  F,3 F,2 G, | 
|| A,3 A,2 G, F,3 F,2 G, | A,3 A,2 G,  F,3 F,2 G, | 
   D,3 D,2 D,  E,3 E,2 E, | A,3 A,2 A,  E,,3 E,,2 E, | %12
   C,3 C,2 E,  D,3 E,2 E, | F,3 F,2 B,  D,2 D,  D,2 G, | 
   "E"E,3 E,3     "C7"C,3 "Edim"^E,2 ^E, | "F#m"F,2F, F,2F, C,2C, F,2F, | 
   "D"D,3 D,6  D,2D,    | "F#m"F,3 F,2C,C,3 C,2E, |  
   "D"D,3 D,2D, D,3 E3       | "A"F,3 F,2B, "E4"B,3 "E"F,2 E, | %18
   "A"A,3 C,2C, "F#m7"F,3  F,2 F, ||

V:Guitar
%%MIDI channel 6
%%MIDI program 34
!p!
|| "A"[ace]3 [ace]3  "F#m7"[Fac]3 "F"[ace]3 | "A"[ace]3 [ace]3  "F#m7"[Fea]3 [Fea]3
|| "A"[ace]3 [ace]3  "F#m7"[Fac]3 "F"[ace]3 | "A"[ace]3 [ace]3  "F#m7"[Fac]3 Feace]3
   "D"[dfa]3 [Adfa]3 "E"EGB [Beg]3 | "A"[ace]3 [ace]3 "E"[Beg]3 [Beg]3 | 
   "A"[ace]3 [ace]3 "D"[dfa]3"E"[Beg]3 | "F#m"[Fac]3 [Fac]3 "D"[dfa]3[dfa]3 | 
%p3
   "E"[EGB]3 [Beg]3 "c#7"[GBe]3 "Edim"[Beg]3 | "F#m"[FAc]3 [FAc]6 z3 | "D"dfa [Adfa]3 z6 | "F#m"Acf [Acf]3 "D"[DFA]3 [DFA]3
   "D"[adf]3[Adf]3 "D"[adf]3[Adf]3       | "A"[ace]3 [ace]3 "E4"[EBg]3"E"[Beg]3 | %18
   "A""A"[ace]3 [ace]3 "F#m7"[Fac]3 "F"[ace]3 ||
[V:Drumset]

